cached_logos/alcide.svg

<svg   viewBox="-5.240000000000009 -5.099999999999994 272.48 265.2" version="1.1" xmlns="http://www.w3.org/2000/svg" xmlns:xlink="http://www.w3.org/1999/xlink">
<title>Logo</title>
<desc>Created using Figma</desc>
<g id="Canvas" transform="translate(4085 289)">
<g id="Logo">
<g id="Union">
<use xlink:href="#path0_fill" transform="translate(-4085 -289)" fill="#0031E2"/>
</g>
</g>
</g>
<defs>
<path id="path0_fill" fill-rule="evenodd" d="M 129.063 139.611C 96.9913 139.611 68.5194 121.525 54.785 111.109L 129.063 33.1282L 203.343 111.109C 189.6 121.529 161.132 139.611 129.063 139.611ZM 151.086 96.0499L 128.862 73.8494L 106.638 96.0499L 128.862 118.25L 151.086 96.0499ZM 30.0726 120.219C 31.8707 121.937 74.7769 162.273 129.063 162.273C 183.351 162.273 226.257 121.937 228.055 120.219L 236.187 112.462L 129.063 0L 21.9409 112.462L 30.0726 120.219ZM 73.9611 188.674L 59.1836 188.678L 59.202 255L 73.9795 254.996L 73.9611 188.674ZM 32.4762 218.888C 34.4388 220.455 35.9118 222.554 36.8938 225.187L 36.8964 235.437C 35.6699 237.568 34.2297 239.245 32.5733 240.469C 30.9181 241.691 28.9548 242.303 26.6861 242.304C 25.0296 242.304 23.4963 241.975 22.0856 241.318C 20.673 240.66 19.4623 239.767 18.4495 238.639C 17.4374 237.511 16.6396 236.18 16.0569 234.643C 15.4728 233.108 15.1818 231.432 15.1818 229.613C 15.1811 227.92 15.4407 226.29 15.9618 224.723C 16.4823 223.156 17.2335 221.76 18.2155 220.538C 19.1955 219.315 20.3452 218.343 21.6648 217.622C 22.9824 216.901 24.439 216.539 26.0352 216.539C 28.3648 216.538 30.5116 217.322 32.4762 218.888ZM 13.5784 253.075C 16.3682 254.358 19.4511 255.001 22.8244 255C 26.1367 254.999 28.943 254.293 31.2432 252.882C 33.5427 251.47 35.4287 249.417 36.8997 246.721L 36.9016 254.055L 51.6232 254.051L 51.6094 205.342L 36.8878 205.346L 36.8898 212.775C 35.4175 210.017 33.3153 207.824 30.5864 206.194C 27.8562 204.565 24.7733 203.751 21.339 203.752C 18.2706 203.753 15.4354 204.412 12.8285 205.729C 10.2215 207.046 7.96779 208.85 6.06811 211.138C 4.16649 213.427 2.67975 216.139 1.60732 219.273C 0.534267 222.409 -0.000663837 225.762 6.18237e-07 229.335C 0.00132953 233.034 0.553935 236.435 1.65914 239.537C 2.76431 242.64 4.32839 245.352 6.35325 247.669C 8.37815 249.989 10.7859 251.791 13.5784 253.075ZM 81.3775 229.166C 81.3768 225.759 81.9519 222.493 83.102 219.369C 84.2514 216.245 85.919 213.5 88.0993 211.133C 90.2804 208.766 92.9614 206.888 96.1416 205.498C 99.3226 204.111 102.943 203.414 107.002 203.413C 112.516 203.411 117.152 204.626 120.91 207.053C 124.668 209.482 127.486 212.652 129.366 216.564L 115.188 221.017C 113.309 217.862 110.552 216.284 106.916 216.286C 103.885 216.286 101.356 217.456 99.3265 219.79C 97.2963 222.127 96.2841 225.25 96.2848 229.162C 96.2854 231.119 96.558 232.901 97.104 234.509C 97.6492 236.119 98.4069 237.491 99.377 238.626C 100.346 239.762 101.482 240.646 102.787 241.276C 104.089 241.907 105.468 242.222 106.923 242.221C 108.74 242.22 110.406 241.763 111.921 240.847C 113.435 239.933 114.557 238.749 115.283 237.297L 129.464 241.836C 127.707 245.686 124.906 248.841 121.059 251.304C 117.211 253.766 112.529 254.998 107.016 255C 103.017 255.001 99.4268 254.292 96.2459 252.873C 93.0637 251.454 90.3666 249.562 88.1544 247.196C 85.941 244.83 84.2585 242.085 83.1078 238.962C 81.9551 235.839 81.3788 232.574 81.3775 229.166ZM 133.168 207.303L 133.182 255L 147.959 254.996L 147.946 207.299L 133.168 207.303ZM 133.166 201.852L 133.163 188.679L 147.941 188.674L 147.944 201.848L 133.166 201.852ZM 187.855 220.584C 189.92 222.077 191.447 224.048 192.433 226.497L 192.436 236.355C 191.45 238.387 190.033 239.985 188.184 241.151C 186.336 242.316 184.332 242.899 182.175 242.899C 180.51 242.9 178.97 242.603 177.552 242.006C 176.132 241.409 174.916 240.572 173.898 239.497C 172.881 238.422 172.079 237.138 171.493 235.644C 170.906 234.151 170.614 232.538 170.614 230.805C 170.613 229.191 170.874 227.623 171.398 226.099C 171.921 224.576 172.676 223.247 173.663 222.111C 174.647 220.977 175.788 220.064 177.082 219.377C 178.377 218.69 179.824 218.345 181.428 218.345C 183.647 218.344 185.788 219.091 187.855 220.584ZM 192.439 247.288L 192.441 254.099L 207.143 254.096L 207.124 188.674L 192.331 188.678L 192.337 214.757C 190.796 212.13 188.668 210.039 185.956 208.486C 183.242 206.933 180.16 206.157 176.709 206.158C 173.626 206.159 170.776 206.787 168.156 208.042C 165.537 209.298 163.271 211.017 161.362 213.197C 159.452 215.379 157.973 217.963 156.927 220.95C 155.878 223.939 155.356 227.135 155.357 230.54C 155.358 234.066 155.928 237.306 157.07 240.263C 158.211 243.22 159.8 245.805 161.835 248.014C 163.87 250.224 166.288 251.942 169.095 253.165C 171.899 254.388 174.966 255.001 178.294 255C 184.705 254.998 189.42 252.428 192.439 247.288ZM 243.371 217.228C 245.249 219.047 246.339 221.522 246.644 224.656L 226.11 224.662C 226.412 221.591 227.485 219.13 229.334 217.279C 231.18 215.43 233.526 214.504 236.374 214.504C 239.159 214.503 241.493 215.411 243.371 217.228ZM 217.712 247.42C 219.923 249.74 222.62 251.573 225.8 252.919C 228.98 254.265 232.569 254.939 236.567 254.938C 242.077 254.936 246.802 253.713 250.74 251.266C 254.676 248.82 257.581 245.654 259.459 241.767L 247.102 238.197C 246.435 240.015 245.118 241.457 243.151 242.523C 241.182 243.591 239.138 244.123 237.019 244.124C 234.352 244.124 231.975 243.264 229.885 241.54C 227.796 239.817 226.628 237.295 226.385 233.971L 261.637 233.961C 261.759 233.335 261.849 232.597 261.91 231.751C 261.969 230.905 262.001 230.044 262 229.165C 261.999 225.78 261.437 222.552 260.316 219.48C 259.194 216.41 257.544 213.698 255.363 211.347C 253.182 208.997 250.515 207.134 247.365 205.755C 244.215 204.378 240.611 203.689 236.552 203.69C 232.494 203.691 228.876 204.383 225.696 205.761C 222.517 207.141 219.837 209.023 217.657 211.406C 215.478 213.789 213.811 216.564 212.662 219.729C 211.512 222.895 210.937 226.265 210.939 229.838C 210.939 233.162 211.515 236.342 212.668 239.382C 213.818 242.423 215.5 245.103 217.712 247.42Z"/>
</defs>
</svg>

<svg viewBox="-5.22 -5.22 271.44 264.44" xmlns="http://www.w3.org/2000/svg" xmlns:xlink="http://www.w3.org/1999/xlink"><title>Alcide</title><use fill="#0031E2" xlink:href="#path0_fill"/><defs><path id="path0_fill" fill-rule="evenodd" d="M129.063 139.611c-32.072 0-60.544-18.086-74.278-28.502l74.278-77.98 74.28 77.98c-13.743 10.42-42.211 28.502-74.28 28.502zm22.023-43.561l-22.224-22.2-22.224 22.2 22.224 22.2 22.224-22.2zM30.073 120.219c1.798 1.718 44.704 42.054 98.99 42.054 54.288 0 97.194-40.336 98.992-42.054l8.132-7.757L129.063 0 21.941 112.462l8.132 7.757zm43.888 68.455l-14.777.004.018 66.322 14.778-.004-.019-66.322zm-41.485 30.214c1.963 1.567 3.436 3.666 4.418 6.299l.002 10.25c-1.226 2.131-2.666 3.808-4.323 5.032-1.655 1.222-3.618 1.834-5.887 1.835-1.656 0-3.19-.329-4.6-.986a11.161 11.161 0 0 1-3.636-2.679c-1.013-1.128-1.81-2.459-2.393-3.996-.584-1.535-.875-3.211-.875-5.03 0-1.693.259-3.323.78-4.89.52-1.567 1.271-2.963 2.253-4.185a11.396 11.396 0 0 1 3.45-2.916c1.317-.721 2.774-1.083 4.37-1.083 2.33-.001 4.477.783 6.441 2.349zm-18.898 34.187c2.79 1.283 5.873 1.926 9.246 1.925 3.313-.001 6.119-.707 8.42-2.118 2.299-1.412 4.185-3.465 5.656-6.161l.002 7.334 14.721-.004-.014-48.709-14.721.004.002 7.429c-1.473-2.758-3.575-4.951-6.304-6.581-2.73-1.629-5.813-2.443-9.247-2.442-3.068.001-5.904.66-8.51 1.977a21.037 21.037 0 0 0-6.76 5.409c-1.903 2.289-3.39 5.001-4.462 8.135C.534 222.409 0 225.762 0 229.335c.001 3.699.554 7.1 1.66 10.202 1.104 3.103 2.668 5.815 4.693 8.132a21.293 21.293 0 0 0 7.225 5.406zm67.8-23.909c-.001-3.407.574-6.673 1.724-9.797 1.15-3.124 2.817-5.869 4.997-8.236 2.181-2.367 4.862-4.245 8.043-5.635 3.18-1.387 6.801-2.084 10.86-2.085 5.514-.002 10.15 1.213 13.908 3.64 3.758 2.429 6.576 5.599 8.456 9.511l-14.178 4.453c-1.879-3.155-4.636-4.733-8.272-4.731-3.031 0-5.56 1.17-7.59 3.504-2.03 2.337-3.042 5.46-3.041 9.372 0 1.957.273 3.739.819 5.347.545 1.61 1.303 2.982 2.273 4.117a10.377 10.377 0 0 0 3.41 2.65 9.35 9.35 0 0 0 4.136.945c1.817-.001 3.483-.458 4.998-1.374 1.514-.914 2.636-2.098 3.362-3.55l14.181 4.539c-1.757 3.85-4.558 7.005-8.405 9.468-3.848 2.462-8.53 3.694-14.043 3.696-3.999.001-7.59-.708-10.77-2.127-3.182-1.419-5.88-3.311-8.092-5.677-2.213-2.366-3.895-5.111-5.046-8.234-1.153-3.123-1.73-6.388-1.73-9.796zm51.79-21.863l.014 47.697 14.777-.004-.013-47.697-14.778.004zm-.002-5.451l-.003-13.173 14.778-.005.003 13.174-14.778.004zm54.689 18.732c2.065 1.493 3.592 3.464 4.578 5.913l.003 9.858c-.986 2.032-2.403 3.63-4.252 4.796-1.848 1.165-3.852 1.748-6.009 1.748-1.665.001-3.205-.296-4.623-.893a10.651 10.651 0 0 1-3.654-2.509c-1.017-1.075-1.819-2.359-2.405-3.853-.587-1.493-.879-3.106-.879-4.839-.001-1.614.26-3.182.784-4.706.523-1.523 1.278-2.852 2.265-3.988a11.872 11.872 0 0 1 3.419-2.734c1.295-.687 2.742-1.032 4.346-1.032 2.219-.001 4.36.746 6.427 2.239zm4.584 26.704l.002 6.811 14.702-.003-.019-65.422-14.793.004.006 26.079c-1.541-2.627-3.669-4.718-6.381-6.271-2.714-1.553-5.796-2.329-9.247-2.328-3.083.001-5.933.629-8.553 1.884a21.024 21.024 0 0 0-6.794 5.155c-1.91 2.182-3.389 4.766-4.435 7.753-1.049 2.989-1.571 6.185-1.57 9.59.001 3.526.571 6.766 1.713 9.723 1.141 2.957 2.73 5.542 4.765 7.751a21.336 21.336 0 0 0 7.26 5.151c2.804 1.223 5.871 1.836 9.199 1.835 6.411-.002 11.126-2.572 14.145-7.712zm50.932-30.06c1.878 1.819 2.968 4.294 3.273 7.428l-20.534.006c.302-3.071 1.375-5.532 3.224-7.383 1.846-1.849 4.192-2.775 7.04-2.775 2.785-.001 5.119.907 6.997 2.724zm-25.659 30.192c2.211 2.32 4.908 4.153 8.088 5.499 3.18 1.346 6.769 2.02 10.767 2.019 5.51-.002 10.235-1.225 14.173-3.672 3.936-2.446 6.841-5.612 8.719-9.499l-12.357-3.57c-.667 1.818-1.984 3.26-3.951 4.326-1.969 1.068-4.013 1.6-6.132 1.601-2.667 0-5.044-.86-7.134-2.584-2.089-1.723-3.257-4.245-3.5-7.569l35.252-.01c.122-.626.212-1.364.273-2.21a36.53 36.53 0 0 0 .09-2.586c-.001-3.385-.563-6.613-1.684-9.685-1.122-3.07-2.772-5.782-4.953-8.133-2.181-2.35-4.848-4.213-7.998-5.592-3.15-1.377-6.754-2.066-10.813-2.065-4.058.001-7.676.693-10.856 2.071-3.179 1.38-5.859 3.262-8.039 5.645-2.179 2.383-3.846 5.158-4.995 8.323-1.15 3.166-1.725 6.536-1.723 10.109 0 3.324.576 6.504 1.729 9.544a23.611 23.611 0 0 0 5.044 8.038z"/></defs></svg>
